!!!OTL: Man gan niu(2)
!!!ARE: Asia, China,ˇAnhui, Jinzhai
!! III, 579
!!!SCT: C1607
!!!YEM: Copyright 1995, estate of Helmut Schaffrath.
**kern
*ICvox
*Ivox
*M2/4
*k[f#]
*G:
{8a
16a
16g
4e
=1
8g
8a
8b
8ee
=2
8ee
8dd
8b
8a
=3
16e
16g
8g
4e}
=4
{8e
8g
8a
8b
=5
8ee
16ee
16dd
16b
16dd
8a
=6
16g
8e
16g
8e
8r}
=7
{16g
16e
8e
8g
8g
=8
8b
4b
8g
=9
4.a
8b
=10
8g
4.e}
=11
{8e
8e
4e
=12
8g
8a
4b
=13
8ee
16ee
16dd
8b
8a
=14
8a
8g
4e}
=15
{8e
8g
8a
8b
=16
8ee
16ee
16dd
16b
16dd
8a
=17
8g
4.e}
=18
{8a
16a
16g
4e
=19
8a
4b
8g
=20
8dd
8b
8dd
8a
=21
8g
4.e}
=22
{8e
8g
8a
8b
=23
8ee
16ee
16dd
16ee
16dd
16b
16a
=24
16g
[8.e
8e]
8r}
=25
{16g
16e
8e
8g
8g
=26
8a
4b
8g
=27
8dd
8b
8dd
8a
=28
8g
4.e}
==
!!!AGN: Shange. NannÅ qing
!!!AMT: simple duple
!!!AIN: vox
!!!EED: Helmut Schaffrath
!!!EEV: 1.0
*-
